X:1
T:James Gibb editions
T:Quando miro i capelli - Antonelli da Rimini
%%score [ 1 2 3 ]
L:1/8
Q:1/4=108
M:2/2
K:C
V:1 treble-8 nm="Tenor I" snm="T I"
V:2 treble-8 nm="Tenor II" snm="T II"
V:3 bass nm="Bass" snm="B"
V:1
"^Quando miro i capelli""^Cornelio Antonelli da Rimini\n(C16th)" z2 g2 g2 g2 | f2 f2 e4 | %2
w: Quan- do mi-|ro~~i ca- pel-|
w: D'a- mor ten-|ga- no l'ar-|
 d2 c2 c2 B2 | c2 d2 e4 | e2 g2 g3 f |[M:2/2][K:treble-8] e2 e2 d4 | e4 | d4 d2 f2 | e2 e2 e4 | %9
w: li I- na- ne-|la- ti~~e bel-|li, i- na- ne-|la- ti~~e bel-|li,|Es- cla- mi'n|tal pa- ro-|
w: co Di mil- le|co- ri car-|co, Di mil- le|co- ri car-|co,|La va- ga~~e|bian- ca ma-|
 d2 a2 a2 a2 | g2 f2 g4 | f4 :: z2 a2 g2 e2 | f2 g2 a2 a2 | g2 e2 f2 g2 | a2 a2 f2 g2 | e4 ^f4 :| %17
w: le, es- cla- mi'n|tal pa- ro-|le,|In ques- ta|re- te d'or, in|ques- ta re- te|d'or S'as- con- d'il|so- le.|
w: no, la va- ga~~e|bian- ca ma-|no,|Don- na bell'e|cru- de- le Ma-|ria non cre- da'l|duol di me fe-|de- le.|
V:2
 z2 e2 e2 e2 | A2 A2 (d2 ^c2) | A2 A2 A2 ^G2 | A2 B2 c4 | c2 e2 e3 d | %5
w: Quan- do mi-|ro~~i ca- pel\- *|li I- na- ne-|la- ti~~e bel-|li, i- na- ne-|
w: D'a- mor ten-|ga- no l'ar\- *|co Di mil- le|co- ri car-|co, Di mil- le|
[M:2/2][K:treble-8] c2 c2 B4 | c4 | B4 B2 d2 | ^c2 d2 (d2 c2) | A2 f2 f2 f2 | e2 d2 e4 | c4 :: %12
w: la- ti~~e bel-|li,|Es- cla- mi'n|tal pa- ro\- *|le, es- cla- mi'n|tal pa- ro-|le,|
w: co- ri car-|co,|La va- ga~~e|bian- ca ma\- *|no, la va- ga~~e|bian- ca ma-|no,|
 z2 f2 e2 c2 | d2 e2 f2 f2 | e2 c2 d2 e2 | f2 f2 d2 d2 | (d2 ^c2) d4 :| %17
w: In ques- ta|re- te d'or, in|ques- ta re- te|d'or S'as- con- d'il|so\- * le.|
w: Don- na bell'e|cru- de- le Ma-|ria non cre- da'l|duol di me fe-|de\- * le.|
V:3
 z2 C,2 C,2 C,2 | D,2 D,2 A,,4 | D,2 F,2 F,2 E,2 | F,2 G,2 C,4 | C,2 C2 C3 B, | %5
w: Quan- do mi-|ro~~i ca- pel-|li I- na- ne-|la- ti~~e bel-|li, i- na- ne-|
w: D'a- mor ten-|ga- no l'ar-|co Di mil- le|co- ri car-|co, Di mil- le|
[M:2/2] A,2 A,2 G,4 | C,4 | G,4 G,2 D,2 | A,2 ^G,2 A,4 | D,2 D,2 D,2 D,2 | C,2 D,2 C,4 | F,4 :: %12
w: la- ti~~e bel-|li,|Es- cla- mi'n|tal pa- ro-|le, es- cla- mi'n|tal pa- ro-|le,|
w: co- ri car-|co,|La va- ga~~e|bian- ca ma-|no, la va- ga~~e|bian- ca ma-|no,|
 z2 F,2 C,2 A,,2 | _B,,2 C,2 D,2 D,2 | C,2 A,,2 _B,,2 C,2 | D,2 D,2 _B,2 G,2 | A,4 D,4 :| %17
w: In ques- ta|re- te d'or, in|ques- ta re- te|d'or S'as- con- d'il|so- le.|
w: Don- na bell'e|cru- de- le Ma-|ria non cre- da'l|duol di me fe-|de- le.|

